!!!OTL: Der siebente Sprung (Band 1), S. 270
!!!id: P0873
**kern
*clefG2
*k[f#]
*D:
{16d
=1
16d
8.d
16f#
8a
8a
=2
8b
16b
16b
4a}
=3
{8.d
16f#
8a
8a
=4
4b
4a}
=5
{8g
8g
8f#
8f#
=6
8e
8e
4d}
=7
{8g
8g
8f#
8f#
=8
8e
8e
8d}
=9
{8a
=10
2e
=11
4.d}
8r
==
*-
!!!minrhy: 16
!!!meters: 2/4 ]  ZZ[5
!!!cut: Der siebente Sprung (Band 1), S. 270
!!!reg: Lothringen
!!!trd: PINCK, Louis: Verklingende Weisen, Bd 1, Metz 1928
!!!rhy1:   X_.XX_X_  X_XXX__
!!!rhy2: X_.XX_X_  X__X__
!!!key: P0873  16  D 2/4 ]  ZZ[5
!!!mod: SECHSTONSKALA DUR ?]  AMBITUS[6
!!!kad: 55111
!!!akz: 16_16_42_42_21_
!!!fot: 'a__av_b__b__c__
!!!for: 'a__b__c__cv_d__
!!!fok: '/__/__\__\__\__
!! PHRAS[VORWIEGEND VOLLTAKTIG]
!!!fkt: Tanzlied
!! LOTH VKL
!! PR[26] 2K[9] 2G[22] 3K[2] 3G[4] 4A[0] 4Ü[0] 5A[2] 6K[0] 6G[0]
!! 7K[0] 7G[0] 8A[0] MEHR[0] SI[39] ABS[100] SR[31] SP[8]
!! ST[16] 2k[5] 2g[20] 3k[5] 3g[2] 4d[0] 4ü[0] 5d[3] 6k[0] 6g[0]
!! 7k[0] 7g[0] 8d[0] mehr[0] si[35] dm[+4] sr[25] sp[10]
!! 1F[8] 2F[70] 3F[18] 4F[2] LF[0] 2P[0] 3P[2] 4P[0] TRI[0] DF[5] AB[103]
!! TF[0] U3K[0] U3[0] U4[0] U4Ü[0] U5[0] U6K[0] U6[0] U7K[0] U7[0]
!! N1[12] N2K[0] N2[16] N3K[0] N3[17] N4[13] N4Ü[0] N5[25] N6K[0] N6[12]
!!!n7k: 0] N7[3] O1[3] O2K[0] O2[0] O3K[0] O3[0] HÖ[0
